X:1
T:Ave vivens hostia
T:André Vierendeels
T:(02/03/18)
T:Early melody
T:Ave vivens hostia 2
T:ad voces aequales
T:©
T:©
T:©
C:André Vierendeels
Z:©
%%score [ 1 2 3 ]
L:1/8
Q:1/4=120
M:2/2
K:F
V:1 treble-8 nm="Tenor 1" snm="T 1"
V:2 treble-8 nm="Tenor 2" snm="T 2"
V:3 bass nm="Bass" snm="B"
V:1
 G4 d4 | G4 d4 | c4 e4 | !fermata!f8 | e4 d4 | c4 =B4 | A8 | !fermata!G8 :| G4 A4 | B4 G4 | B4 c4 | %11
w: A- ve|vi- vens|ho- sti-|a,|ve- ri-|tas et|vi-|ta,|per te|Pa- tri|glo- ri-|
w: Per te|sa- cri-|fi- ci-|a,|cun- cta|sunt fi-|ni-|ta,||||
 !fermata!A8 | G4 A4 | B4 c4 | d8 | !fermata!G8 | G4 A4 | B4 c4 | d4 d4 | !fermata!c8 | d4 c4 | %21
w: a,|da- tur|in- fi-|ni-|ta,|per te|stat ec-|cle- si-|a,|ju- gi-|
w: ||||||||||
 G4 B4 | A8 | !fermata!G8 |] %24
w: ter mu-|ni-|ta.|
w: |||
V:2
 B4 A4 | c4 A4 | G2 A4 ^c2 | !fermata!A8 | c4 A4 | A4 D4 | ^F8 | !fermata!D8 :| D4 F4 | G4 _E4 | %10
w: A- ve|vi- vens|ho- sti- *|a,|ve- ri-|tas et|vi-|ta,|per te|Pa- tri|
w: Per te|sa- cri-|fi- ci- *|a,|cun- cta|sunt fi-|ni-|ta,|||
 F4 A2 G2 | !fermata!^F8 | B4 F4 | G4 G4 | A4 F4 | !fermata!B,8 | B4 A4 | F4 A4 | G4 =B4 | %19
w: glo- * ri-|a,|da- tur|in- fi-|ni- *|ta,|per te|stat ec-|cle- si-|
w: |||||||||
 !fermata!G8 | F2 A2 G2 A2 | c4 G4 | ^F6 A2 | !fermata!=B8 |] %24
w: a,|ju- * * gi-|ter mu-|ni- *|ta.|
w: |||||
V:3
 G,4 D,4 | _E,4 D,4 |"^-natural" E,2 F,2 A,4 | !fermata!D,8 | A,4 F,4 | E,4 G,,4 | D,8 | %7
w: A- ve|vi- vens|ho- * sti-|a,|ve- ri-|tas et|vi-|
w: Per te|sa- cri-|fi- * ci-|a,|cun- cta|sunt fi-|ni-|
 !fermata!G,,8 :| G,,4 D,4 | _E,2 B,,2 G,,4 | B,,2 D,2 _E,4 | !fermata!D,8 | G,4 F,4 | _E,4 C,4 | %14
w: a,|per te|Pa- * tri|glo- * ri-|a,|da- tur|in- fi-|
w: ta,|||||||
 D,8 | !fermata!G,,8 | G,4 F,4 | B,,4 F,4 | G,,4 G,,4 | !fermata!C,8 | D,4 E,2 ^F,2 | %21
w: ni-|ta,|per te|stat ec-|cle- si-|a,|ju- gi- *|
w: |||||||
 G,2 _E,2 G,,4 | D,8 | !fermata!G,,8 |] %24
w: ter _ mun-|ni-|ta.|
w: |||

